!!!ONB: MCCC : IJH0425_03 : Extracted Monophonic Melody
!!!COM: Haydn, Joseph
!!!OPR: String Quartet in D major
!!!OMV: 3
!!!SCT: Hob.III:3 ; Op.1 No.3
!!!ODT: 1757///
**kern
*thru
*k[f#c#]
*D:
*clefF
*M2/4
8aa
=1
8ff#
8dd
8a
8gg
=2
4gg
8ff#
8r
=3
2r
=4
4.r
8dd
=5
8ff#
8aa
8ddd
8bb
=6
4aa
8gg#
8r
=7
2r
=8
4.r
8aa
=9
8ff#
8dd#
8b
8dd#
=10
4dd#
8ee
8r
=11
2r
=12
4.r
8b
=13
8ee
8gg
8bb
8dd
=14
4dd
8cc#
8r
=15
2r
=16
4.r
8a
=17
2gg
=18
4.ff#
8a
=19
2ccc#
=20
4.ddd
8dd
=21
8gg
8bb
8ddd
8bb
=22
4bb
8aa
8gg
=23
8ff#
8dd
8e
8cc#
=24
4d
4r
=25
8r
8dd
8dd
8dd
=26
32cc#
32dd
8.ee
4r
=27
8r
8ff
8ff
8ff
=28
32ee
32ff
8.gg
4r
=29
8r
8aa
8aa
8aa
=30
32gg#
32aa
8.bb
8r
16ddd
16bb
=31
8aa
8ee
8ff
8g#
=32
4a
8r
8a
=33
2aa
=34
4gg#
4gg
=35
4ff
4cc#
=36
8dd
24f
24e
24d
8dd
24f
24e
24d
=37
4a
4r
=38
4.r
8dd
=39
8gg
8gg
8gg
8gg
=40
32ff#
32ee
8.dd
8r
8dd
=41
8ff
8ff
8ff
8ff
=42
32ee
32dd
8.cc
8r
24bb-
24gg
24ee
=43
8ff
8dd
8b-
8cc
=44
4f
4r
=45
8r
8ff#
8ff#
8ff#
=46
32gg
32aa
8.bb-
4r
=47
8r
8ee
8ee
8ee
=48
32ff
32gg
8.aa
32dd
32ee
8.ff
=49
32gg
32aa
8.bb-
32ee
32ff
8.gg
=50
32ff
32gg
8.aa
16gg
16ff
16ee
16dd
=51
4cc#
8r
8A
=52
8ee
8ee
8ee
8g
=53
32f
32g
8.a
32d
32e
8.f
=54
32e
32f
8.g
16f
16e
16d
16c#
=55
4d
4r
==
*-
